webroot/img/new-desgin/courses-icon.svg

<svg width="32" height="32" viewBox="0 0 32 32" fill="none" xmlns="http://www.w3.org/2000/svg">
<g id="Frame">
<g id="Group">
<path id="Vector" d="M31.017 14.1301C31.6235 13.8206 32 13.2056 32 12.5251C32 11.8446 31.6235 11.2296 31.017 10.9201L16.818 3.67208C16.5642 3.54346 16.2837 3.47648 15.9992 3.47656C15.7147 3.47665 15.4342 3.5438 15.1805 3.67258L0.9825 10.9206C0.3765 11.2296 0 11.8446 0 12.5251C0 13.2056 0.3765 13.8206 0.9825 14.1301L6.5205 16.9576V24.2771C6.5205 26.4211 11.216 28.5246 16 28.5246C20.7845 28.5246 25.4795 26.4206 25.4795 24.2771V16.9571L28.6145 15.3566V21.0696L27.868 22.9746C27.7629 23.2426 27.7249 23.5323 27.7574 23.8184C27.7898 24.1045 27.8916 24.3783 28.054 24.6161C28.3835 25.1001 28.9305 25.3886 29.5155 25.3886C30.1005 25.3886 30.647 25.1001 30.9765 24.6166C31.1389 24.3786 31.2407 24.1046 31.2731 23.8184C31.3055 23.5321 31.2675 23.2423 31.1625 22.9741L30.4165 21.0701V14.4366L31.017 14.1301ZM23.683 24.2301C23.493 24.8506 20.4655 26.7231 16 26.7231C11.5345 26.7231 8.507 24.8506 8.322 24.2771V16.4056L8.3185 16.4031C8.31891 16.2377 8.2736 16.0755 8.18756 15.9343C8.10153 15.7932 7.97812 15.6785 7.831 15.6031L1.802 12.5251L16 5.27708L30.1985 12.5251L16 19.7731L10.8215 17.1296C10.6097 17.0297 10.3673 17.0161 10.1457 17.0918C9.92404 17.1675 9.74056 17.3264 9.63406 17.535C9.52756 17.7436 9.50641 17.9854 9.57509 18.2093C9.64376 18.4332 9.79687 18.6216 10.002 18.7346L15.181 21.3781C15.4347 21.5074 15.7155 21.5749 16.0002 21.5749C16.285 21.5749 16.5658 21.5074 16.8195 21.3781L23.679 17.8766L23.683 24.2301Z" fill="url(#paint0_linear_533_13189)"/>
</g>
</g>
<defs>
<linearGradient id="paint0_linear_533_13189" x1="2.9972" y1="5.76461" x2="23.7638" y2="39.1054" gradientUnits="userSpaceOnUse">
<stop stop-color="#007BC4"/>
<stop offset="1" stop-color="#0B4C97"/>
</linearGradient>
</defs>
</svg>

<svg width="32" height="32" fill="none" xmlns="http://www.w3.org/2000/svg"><path d="M31.017 14.13c.607-.31.983-.924.983-1.605 0-.68-.377-1.295-.983-1.605L16.818 3.672a1.81 1.81 0 0 0-1.638 0L.984 10.922A1.793 1.793 0 0 0 0 12.525c0 .68.377 1.296.983 1.605l5.538 2.828v7.32c0 2.143 4.695 4.247 9.479 4.247 4.785 0 9.48-2.104 9.48-4.248v-7.32l3.134-1.6v5.713l-.746 1.905a1.765 1.765 0 0 0 .186 1.641 1.767 1.767 0 0 0 2.923 0 1.77 1.77 0 0 0 .186-1.642l-.747-1.904v-6.633l.601-.307Zm-7.334 10.1c-.19.62-3.218 2.493-7.683 2.493-4.466 0-7.493-1.872-7.678-2.446v-7.871l-.003-.003a.897.897 0 0 0-.488-.8l-6.029-3.078L16 5.277l14.198 7.248L16 19.773l-5.178-2.643a.901.901 0 0 0-.82 1.605l5.179 2.643a1.804 1.804 0 0 0 1.639 0l6.859-3.501.004 6.353Z" fill="url(#a)"/><defs><linearGradient id="a" x1="2.997" y1="5.765" x2="23.764" y2="39.105" gradientUnits="userSpaceOnUse"><stop stop-color="#007BC4"/><stop offset="1" stop-color="#0B4C97"/></linearGradient></defs></svg>
